packages/icons/src/SVG/zip.svg

<svg width="12" height="12" viewBox="0 0 12 12" fill="none" xmlns="http://www.w3.org/2000/svg">
<path fill-rule="evenodd" clip-rule="evenodd" d="M1 0V6H2V1H7V4H10V6H11V2L9 0H1ZM10 3V2.41421L8.58579 1H8V3H10Z" fill="#4C505B"/>
<path d="M4.84229 11.9971H1.25V11.4331L3.79297 7.69727H1.32861V7H4.77393V7.56055L2.23096 11.2998H4.84229V11.9971Z" fill="#4C505B"/>
<path d="M5.75 7V11.9971H6.57031V7H5.75Z" fill="#4C505B"/>
<path fill-rule="evenodd" clip-rule="evenodd" d="M10.3643 7.39648C10.068 7.13216 9.59749 7 8.95264 7H7.5V11.9971H8.32031V10.124H8.85352C9.2181 10.124 9.52458 10.0807 9.77295 9.99414C10.0236 9.90755 10.2253 9.7902 10.3779 9.64209C10.5306 9.4917 10.64 9.31966 10.7061 9.12598C10.7744 8.93001 10.8086 8.7238 10.8086 8.50732C10.8086 8.03109 10.6605 7.66081 10.3643 7.39648ZM8.32031 7.68018H8.89795C9.26709 7.68018 9.53825 7.75081 9.71143 7.89209C9.88688 8.03337 9.97461 8.2487 9.97461 8.53809C9.97461 8.75456 9.9279 8.92887 9.83447 9.06104C9.74105 9.1932 9.60433 9.29004 9.42432 9.35156C9.2443 9.41081 9.02555 9.44043 8.76807 9.44043H8.32031V7.68018Z" fill="#4C505B"/>
</svg>

<!-- Generated by IcoMoon.io -->
<svg version="1.1" xmlns="http://www.w3.org/2000/svg" width="12" height="12" viewBox="0 0 12 12">
<title>zip</title>
<path d="M8.707 0h-7.707v6h1v-5h5v3h3v2h1v-3.707l-2.293-2.293zM8 1h0.293l1.707 1.707v0.293h-2v-2z"></path>
<path d="M4.842 11.997h-3.592v-0.564l2.543-3.736h-2.464v-0.697h3.445v0.561l-2.543 3.739h2.611v0.697z"></path>
<path d="M5.75 7v4.997h0.82v-4.997h-0.82z"></path>
<path d="M10.364 7.396c-0.296-0.264-0.767-0.396-1.412-0.396h-1.453v4.997h0.82v-1.873h0.533c0.365 0 0.671-0.043 0.919-0.13 0.251-0.087 0.452-0.204 0.605-0.352 0.153-0.15 0.262-0.322 0.328-0.516 0.068-0.196 0.103-0.402 0.103-0.619 0-0.476-0.148-0.847-0.444-1.111zM8.32 7.68h0.578c0.369 0 0.64 0.071 0.813 0.212 0.175 0.141 0.263 0.357 0.263 0.646 0 0.216-0.047 0.391-0.14 0.523s-0.23 0.229-0.41 0.291c-0.18 0.059-0.399 0.089-0.656 0.089h-0.448v-1.76z"></path>
</svg>
